public/svg/profiles/patreon.svg

<?xml version="1.0" encoding="UTF-8" standalone="no"?>
<svg width="50px" height="50px" viewBox="0 0 50 50" version="1.1" xmlns="http://www.w3.org/2000/svg" xmlns:xlink="http://www.w3.org/1999/xlink">
    <defs></defs>
    <g stroke="none" stroke-width="1" fill="none" fill-rule="evenodd">
        <g>
            <g>
                <circle id="Oval" fill="#FF5900" cx="25" cy="25" r="25"></circle>
                <path d="M25.7868421,13.9394737 C20.7,13.9394737 16.5763158,18.2921053 16.5763158,23.6605263 L16.5763158,36.3078947 L20.2605263,36.3078947 L20.2605263,23.6710526 C20.2605263,20.4605263 22.7276316,17.8578947 25.7684211,17.8578947 C28.8105263,17.8578947 31.275,20.4631579 31.275,23.6710526 C31.275,26.8815789 28.8092105,29.4828947 25.7671053,29.4828947 C24.6895704,29.4820281 23.638106,29.1514367 22.7539474,28.5355263 L22.7539474,32.7131579 C23.3328947,33.0907895 24.6592105,33.3578947 26.2118421,33.3710526 C31.1,33.1342105 34.9960526,28.8776316 34.9960526,23.6605263 C34.9960526,18.2921053 30.8723684,13.9394737 25.7855263,13.9394737 L25.7868421,13.9394737 Z M25.4,33.3710526 C25.5289474,33.3868421 25.6578947,33.4 25.7868421,33.4 C25.9223684,33.4 26.0578947,33.3868421 26.1921053,33.3710526 L25.4,33.3710526 L25.4,33.3710526 Z" id="Shape" fill="#FFFFFF"></path>
            </g>
        </g>
    </g>
</svg>

<svg width="50" height="50" viewBox="0 0 50 50" xmlns="http://www.w3.org/2000/svg"><g fill="none" fill-rule="evenodd"><circle fill="#FF5900" cx="25" cy="25" r="25"/><path d="M25.787 13.94c-5.087 0-9.21 4.352-9.21 9.72V36.31h3.684V23.67c0-3.21 2.468-5.812 5.508-5.812 3.043 0 5.507 2.605 5.507 5.813 0 3.212-2.466 5.813-5.508 5.813-1.077 0-2.13-.332-3.013-.947v4.177c.58.378 1.905.645 3.458.658 4.888-.236 8.784-4.492 8.784-9.71 0-5.368-4.124-9.72-9.21-9.72zM25.4 33.37c.13.017.258.03.387.03.135 0 .27-.013.405-.03H25.4z" fill="#FFF"/></g></svg>
